X: 13251
T: Fitchrona
R: reel
M: 4/4
K: Gdorian
|:G2 DG BGDA|GFED CFGA|GDDd cAGc|dcAB cAFA|
(3GGG DG BGDA|GFED CFGA|GDDd cAGc|dcBA G4:|
|:gddg bggb|afcA FAcd|gddg bdgb|afbd fggd|
gagf dFAc|dcBA GDFA|BGcf dAc_e|dcBA G4:|

